X:1
T:Simple Gifts 
%%score { 1 | 2 }
L:1/8
M:4/4
K:C
V:1 treble nm="Piano" snm="Pno."
V:2 bass 
V:1
 GG | c2 cd ecef | g2 gf e2 dc | d2 d2 d2 c2 | dedB G z G2 | cBcd edef | g2 gf e2 dc | %7
 d2 d2 e2 ed | c2 c2 c2 z2 | g2 z2 e3 d | efed c3 d | e2 ef g2 fe | d2 de d2 G2 | c4 c3 d | %14
 e2 ef g2 fe | d2 d2 e2 ed | c2 c2 c4 |] %17
V:2
 z2 | G,2 z2 E,2- E,D, | E,F,E,D, C,2- C,D, | E,2 E,F, G,2 F,E, | D,2 D,E, D,2 G,,2 | %5
 C,4 C,2- C,D, | E,2 E,F, G,2 F,E, | D,2 D,2 E,2 E,D, | C,2 C,2 C,2 G,,G,, | C,2 C,D, E,C,E,F, | %10
 G,2 G,F, E,2 D,C, | D,2 D,2 D,2 C,2 | D,E,D,B,, G,, z G,,2 | C,2 C,D, E,C,E,F, | %14
 G,2 G,F, E,2 D,C, | D,2 D,2 E,2 E,D, | C,2 C,2 C,4 |] %17

